X:1
T:Title
%%score { 1 | ( 2 3 ) }
L:1/8
M:4/4
K:Ab
V:1 treble nm="Grand Piano"
V:2 bass 
V:3 bass 
V:1
 z4 z2[Q:1/4=108] [CE]2 | [CE]2 [CA]2 [Ec]3 [Fd] | c2 B4 A2 | G3 F G2 F2 |[M:3/4] [CE]6 | %5
[M:1/4] [CE]2 |[M:4/4] [A,C]2 [CE]2 [CA]2 [Ec]2 | [_Ge]2 [Fd]4 [FA][=EB] | [Ec]3 [Fd] [Ec]2 [DB]2 | %9
[M:3/4] [CA]6 |[M:1/4] A2 |[M:4/4] [Fd]3 [Fd] [FA]2 [FB]2 | [Ec]2 [Ec]4 [=Ec]B | %13
 A3 A [=DB]2 [Dc]2 |[M:3/4] [EB]6 |[M:1/4] [DE]2 |[M:4/4] [CA]3 [CA] [EG]2 [DF]2 | %17
 [CE]2 [CA]4 [FB]2 | [Ec]3 [Fd] [Ec]2 [DB]2 |[M:3/4] [CA]6 |] %20
V:2
 z4 z2 [A,,A,]2 | [A,,A,]2 [A,,A,]2 [A,,A,]3 [D,A,] | [E,A,E]2 [E,G,D]4 [E,A,C]2 | %3
 [E,B,D]3 [E,A,D] [E,B,E]2 [E,G,D]2 |[M:3/4] [A,,A,]6 |[M:1/4] [A,,A,]2 | %6
[M:4/4] [A,,E,]2 [A,,A,]2 [A,,A,]2 [A,,A,]2 | [C,A,]2 [D,A,]4 [D,A,]2 | %8
 [E,A,]3 [E,A,] [E,G,]2 [E,G,]2 |[M:3/4] [A,,A,]6 |[M:1/4] [A,C]2 | %11
[M:4/4] [D,A,]3 [D,A,] [D,A,]2 [D,A,]2 | [A,,A,]2 [A,,A,]4 z =E | %13
 [F,A,F]3 [F,A,F] [B,,F,]2 [B,,A,]2 |[M:3/4] [E,G,]6 |[M:1/4] [E,G,]2 | %16
[M:4/4] [A,,A,]3 [A,,A,] [C,A,]2 [D,A,]2 | [A,,A,]2 [A,,A,]4 [D,A,]2 | %18
 [E,A,]3 [E,A,] [E,G,]2 [E,G,]2 |[M:3/4] [A,,A,]6 |] %20
V:3
 x8 | x8 | x8 | x8 |[M:3/4] x6 |[M:1/4] x2 |[M:4/4] x8 | x8 | x8 |[M:3/4] x6 |[M:1/4] x2 | %11
[M:4/4] x8 | z4 z2 [C,G,]2 | x8 |[M:3/4] x6 |[M:1/4] x2 |[M:4/4] x8 | x8 | x8 |[M:3/4] x6 |] %20

